!!!ONB: MCCC : IWM0405_03 : Extracted Monophonic Melody
!!!COM: Mozart, Wolfgang Amadeus
!!!OPR: Piano Sonata No.5
!!!OMV: 3
!!!SCT: K.283 ; K⁶.189h
!!!ODT: 1775///
**kern
*thru
*staff1
*>A
*clefG2
*k[f#]
*G:
*M3/8
*MM144
=1
4b
8cc
=2
8dd
8r
8dd
=3
4gg
8ff#
=4
4ee
8dd
=5
4b
8cc
=6
8dd
8r
8dd
=7
4ee
8dd
=8
4cc
8b
=9
16d
16g
16f#
16g
16b
16g
=10
16e
16a
16g#
16a
16cc
16a
=11
16f#
16b
16a#
16b
16dd
16b
=12
16g
16cc
16b
16cc
16ee
16cc
=13
8dd
8r
8ccc
=14
8bb
8r
8dd
=15
8cc
8r
8ff#
=16
8gg
8r
8b
=17
16a
16g#
16b
16a
16cc
16b
=18
16dd
16cc
[4ee
=19
8ee]
[4cc
=20
8cc]
[4b
=21
8b]
[4a
=22
8a]
[4g
=23
8g]
[4f#
=24
8f#]
8g
8a
=25
4.b
=26
16e
16g
16cc
16g
16ee
16cc
=27
4.ff#
=28
16gg
16bb
16gg
16dd
16b
16g
=29
4.b
=30
16e
16g
16cc
16g
16ee
16cc
=31
4.ff#
=32
16gg
16aa
16bb
16gg
16ff#
16dd#
=33
4ee
8dd
=34
4cc
8b
=35
8b
8a
8b
=36
4cc
8b
=37
8b
8a
8b
=38
4cc
8b
=39
8a
8ddd
8ddd
=40
8ddd
8r
8r
=41
8aa
8gg#
8bb
=42
8aa
8gg#
8bb
=43
[4.aa
=44
4.aa_
=45
8aa]
8r
16ff#
16dd
=46
8gg
8r
16ee
16cc#
=47
8dd
8r
16a
16ff#
=48
8ee
16ee
16gg
16ff#
16aa
=49
8gg
8ff#
8aa
=50
8gg
8ff#
8aa
=51
[4.gg
=52
4.gg_
=53
8gg]
8r
16ee
16cc#
=54
8dd
8r
16a
16ff#
=55
8ee
8r
16a
16gg
=56
8ff#
16ff#
16aa
16gg
16bb
=57
8aa
8r
8r
=58
4.r
=59
8bb
8aa#
8ccc#
=60
8bb
16b
16dd
16cc
16ee
=61
8dd
8r
8r
=62
4.r
=63
8ee
8dd#
8ff#
=64
8ee
16ee
16dd#
16ff#
16ee
=65
16gg
16ee
16cc#
16b-
8a
=66
16gg
16ee
16cc#
16b-
8a
=67
16gg
16ee
16cc#
16b-
8a
=68
16gg
16ee
16cc#
16b-
8a
=69
8r
8r
8aa
=70
8r
8r
8ddd
=71
4.a
=72
4.ee
=73
8dd
8r
8aa
=74
8gg
8ff#
8ff#
=75
8ff#
8r
8ff#
=76
8ccc
8bb
8bb
=77
4bb
8ee
=78
4aa
8dd
=79
8gg
8r
8ff#
=80
4.ee
=81
8dd
8r
8r
=82
8r
8r
8ee#
=83
8ff#
8r
8r
=84
8r
8r
8aa#
=85
8r
8aa
8gg#
=86
8r
8gg
8ff#
=87
8bb
8r
8r
=88
8gg
8r
8r
=89
16f#
16a
16dd
16ff#
8aa
=90
16g
16b
16dd
16gg
8bb
=91
8r
8r
8ddd
=92
8r
8r
8ddd
=93
16ff#
16ddd
16ff#
16ddd
16ff#
16ddd
=94
16ff#
16ddd
16ff#
16ddd
16ff#
16ddd
=95
16ee
16ccc#
16ee
16ccc#
16ee
16ccc#
=96
16ee
16ccc#
16ee
16ccc#
16ee
16ccc#
=97
8ddd
8r
8f#
=98
8g
8g#
8a
=99
8a#
8b
8g#
=100
8a
8r
8a
=101
8d
8r
8ccc#
=102
8ddd
8r
8r
=103
*>A
*M3/8
4b
8cc
=104
8dd
8r
8dd
=105
4gg
8ff#
=106
4ee
8dd
=107
4b
8cc
=108
8dd
8r
8dd
=109
4ee
8dd
=110
4cc
8b
=111
16d
16g
16f#
16g
16b
16g
=112
16e
16a
16g#
16a
16cc
16a
=113
16f#
16b
16a#
16b
16dd
16b
=114
16g
16cc
16b
16cc
16ee
16cc
=115
8dd
8r
8ccc
=116
8bb
8r
8dd
=117
8cc
8r
8ff#
=118
8gg
8r
8b
=119
16a
16g#
16b
16a
16cc
16b
=120
16dd
16cc
[4ee
=121
8ee]
[4cc
=122
8cc]
[4b
=123
8b]
[4a
=124
8a]
[4g
=125
8g]
[4f#
=126
8f#]
8g
8a
=127
4.b
=128
16e
16g
16cc
16g
16ee
16cc
=129
4.ff#
=130
16gg
16bb
16gg
16dd
16b
16g
=131
4.b
=132
16e
16g
16cc
16g
16ee
16cc
=133
4.ff#
=134
16gg
16aa
16bb
16gg
16ff#
16dd#
=135
4ee
8dd
=136
4cc
8b
=137
8b
8a
8b
=138
4cc
8b
=139
8b
8a
8b
=140
4cc
8b
=141
8a
8ddd
8ddd
=142
8ddd
8r
8r
=143
8aa
8gg#
8bb
=144
8aa
8gg#
8bb
=145
[4.aa
=146
4.aa_
=147
8aa]
8r
16ff#
16dd
=148
8gg
8r
16ee
16cc#
=149
8dd
8r
16a
16ff#
=150
8ee
16ee
16gg
16ff#
16aa
=151
8gg
8ff#
8aa
=152
8gg
8ff#
8aa
=153
[4.gg
=154
4.gg_
=155
8gg]
8r
16ee
16cc#
=156
8dd
8r
16a
16ff#
=157
8ee
8r
16a
16gg
=158
8ff#
16ff#
16aa
16gg
16bb
=159
8aa
8r
8r
=160
4.r
=161
8bb
8aa#
8ccc#
=162
8bb
16b
16dd
16cc
16ee
=163
8dd
8r
8r
=164
4.r
=165
8ee
8dd#
8ff#
=166
8ee
16ee
16dd#
16ff#
16ee
=167
16gg
16ee
16cc#
16b-
8a
=168
16gg
16ee
16cc#
16b-
8a
=169
16gg
16ee
16cc#
16b-
8a
=170
16gg
16ee
16cc#
16b-
8a
=171
8r
8r
8aa
=172
8r
8r
8ddd
=173
4.a
=174
4.ee
=175
8dd
8r
8aa
=176
8gg
8ff#
8ff#
=177
8ff#
8r
8ff#
=178
8ccc
8bb
8bb
=179
4bb
8ee
=180
4aa
8dd
=181
8gg
8r
8ff#
=182
4.ee
=183
8dd
8r
8r
=184
8r
8r
8ee#
=185
8ff#
8r
8r
=186
8r
8r
8aa#
=187
8r
8aa
8gg#
=188
8r
8gg
8ff#
=189
8bb
8r
8r
=190
8gg
8r
8r
=191
16f#
16a
16dd
16ff#
8aa
=192
16g
16b
16dd
16gg
8bb
=193
8r
8r
8ddd
=194
8r
8r
8ddd
=195
16ff#
16ddd
16ff#
16ddd
16ff#
16ddd
=196
16ff#
16ddd
16ff#
16ddd
16ff#
16ddd
=197
16ee
16ccc#
16ee
16ccc#
16ee
16ccc#
=198
16ee
16ccc#
16ee
16ccc#
16ee
16ccc#
=199
8ddd
8r
8f#
=200
8g
8g#
8a
=201
8a#
8b
8g#
=202
8a
8r
8a
=203
8d
8r
8ccc#
=204
8ddd
8r
8r
=205
*>B
8r
8d
8d
=206
4d
8f
=207
8r
8d
8d
=208
4d
8a
=209
8r
16ddd
16fff
16bb
16ddd
=210
16gg#
16bb
16ff
16gg#
16dd
16ff
=211
16b
16dd
16g#
16b
16f
16g#
=212
16d
16f
16B
16d
16G#
16B
=213
8r
8e
8e
=214
4e
8a
=215
8r
8a
8a
=216
4a
8ee
=217
8r
16aa
16ccc
16ff#
16aa
=218
16dd#
16ff#
16cc
16dd#
16a
16cc
=219
8r
16gg
16bb
16ee
16gg
=220
16b
16ee
16g
16b
16e
16g
=221
8r
16aa#
16eee
16gg
16aa#
=222
16ee
16gg
16cc
16ee
16a#
16cc
=223
16g
16a#
16e
16g
16c
16e
=224
16A#
16g
16f#
16g
16f#
16e
=225
8d#
8r
8b
=226
8cc
8r
8cc#
=227
8dd
8r
8dd#
=228
8ee
8r
8gg
=229
16ff#
16bb
16aa#
16bb
16b
16bb
=230
16cc
16bb
16aa#
16bb
16cc#
16bb
=231
16dd
16bb
16aa#
16bb
16dd#
16bb
=232
16ee
16bb
16aa#
16bb
16gg
16bb
=233
16ff#
16bb
16aa#
16bb
16aa#
16bb
=234
16ccc
16aa
16ff#
16ee
8dd#
=235
16ccc
16aa
16ff#
16ee
8dd#
=236
16gg
16ee
16cc
16b
8a#
=237
16gg
16ee
16cc
16b
8a#
=238
4.b
=239
4.ff#
=240
8ee
8r
8g
=241
8g#
8a
8a#
=242
8b
8cc
8a#
=243
8b
8r
8b
=244
8e
8r
8ddd#
=245
8eee
8r
8a
=246
8d
8r
8ccc#
=247
8ddd
8r
8g
=248
8c
8r
8bb
=249
8ccc
8r
8dd#
=250
8ee
8b
8cc
=251
8g#
8a
8e
=252
4.g
=253
8f#
8r
8ff#
=254
8gg
8dd#
8ee
=255
8b
8cc
8g
=256
4.b
=257
8a
8r
8r
=258
4.r
=259
4.r
=260
8r
8gg
8gg#
=261
8aa
8ee
8gg
=262
8ff#
8dd
8cc#
=263
8dd
8cc#
8dd
=264
4.a
=265
4.b-
=266
8a
8aa
8gg#
=267
8aa
8gg#
8aa
=268
4gg
8bb-
=269
4.cc#
=270
16dd
16ee-
16ee
16ff
16ff#
16gg
=271
16gg#
16aa
16bb-
16bb
16ccc
16ccc#
=272
8ddd
8r
8r
=273
4.r
=274
4b
8cc
=275
8dd
8r
8dd
=276
4gg
8ff#
=277
4ee
8dd
=278
4b
8cc
=279
8dd
8r
8dd
=280
4ee
8dd
=281
4cc
8b
=282
16d
16g
16f#
16g
16b
16g
=283
16e
16a
16g#
16a
16cc
16a
=284
16f#
16b
16a#
16b
16dd
16b
=285
16g
16cc
16b
16cc
16ee
16cc
=286
8dd
8r
8ccc
=287
8bb
8r
8dd
=288
8cc
8r
8ff#
=289
8gg
8r
8b
=290
16a
16g#
16b
16a
16cc
16b
=291
16dd
16cc
[4ee
=292
8ee]
[4cc
=293
8cc]
[4b
=294
8b]
[4a
=295
8a]
[4g
=296
8g]
[4f#
=297
8f#]
8g
8a
=298
4.b
=299
16e
16g
16cc
16g
16ee
16cc
=300
4.ff#
=301
16gg
16bb
16gg
16dd
16b
16g
=302
4.b
=303
16e
16g
16cc
16g
16ee
16cc
=304
4.ff#
=305
16gg
16aa
16bb
16gg
16ff#
16dd#
=306
4ee
8dd
=307
4cc
8b
=308
8b
8a
8b
=309
4cc
8b
=310
8b
8a
8b
=311
4cc
8b
=312
8a
8ddd
8ddd
=313
8ddd
8r
8r
=314
8ddd
8ccc#
8eee
=315
8ddd
8ccc#
8eee
=316
[4.ddd
=317
4.ddd_
=318
8ddd]
8r
16bb
16gg
=319
8ccc
8r
16aa
16ff#
=320
8gg
8r
16dd
16bb
=321
8aa
16aa
16ccc
16bb
16ddd
=322
8ccc
8bb
8ddd
=323
8ccc
8bb
8ddd
=324
[4.ccc
=325
4.ccc_
=326
8ccc]
8r
16aa
16ff#
=327
8gg
8r
16dd
16bb
=328
8aa
8r
16dd
16ccc
=329
8bb
16bb
16ddd
16ccc
16eee
=330
8ddd
8r
8r
=331
4.r
=332
8ee
8dd#
8ff#
=333
8ee
16e
16g
16f
16a
=334
8g
4r
=335
4.r
=336
8aa
8gg#
8bb
=337
8aa
16aa
16gg#
16bb
16aa
=338
16ccc
16aa
16ff#
16ee-
8dd
=339
16ccc
16aa
16ff#
16ee-
8dd
=340
16ccc
16aa
16ff#
16ee-
8dd
=341
16ccc
16aa
16ff#
16ee-
8dd
=342
8r
8r
8dd
=343
8r
8r
8gg
=344
4.dd
=345
4.aa
=346
8gg
8r
8ddd
=347
8ccc
8bb
8bb
=348
8bb
8r
8bb
=349
8fff
8eee
8eee
=350
4eee
8aa
=351
4ddd
8gg
=352
8ccc
8r
8bb
=353
4.aa
=354
8gg
8r
8r
=355
8r
8r
8ee
=356
8dd#
8r
8r
=357
8r
8r
8dd#
=358
8r
8dd
8cc#
=359
8r
8cc
8b
=360
8ee
8r
8r
=361
8cc
8r
8r
=362
16b
16dd
16gg
16bb
8ddd
=363
16cc
16ee
16gg
16ccc
8eee
=364
8r
8r
8ddd
=365
8r
8r
8ccc
=366
8gg
8gg
8gg
=367
8gg
8gg
8gg
=368
8ff#
8ff#
8ff#
=369
8ff#
8ff#
8ff#
=370
8gg
8r
8b
=371
8cc
8cc#
8dd
=372
8dd#
8ee
8cc#
=373
8dd
8r
8dd
=374
8g
8r
8ccc
=375
8bb
8r
8r
=376
*>B
8r
8d
8d
=377
4d
8f
=378
8r
8d
8d
=379
4d
8a
=380
8r
16ddd
16fff
16bb
16ddd
=381
16gg#
16bb
16ff
16gg#
16dd
16ff
=382
16b
16dd
16g#
16b
16f
16g#
=383
16d
16f
16B
16d
16G#
16B
=384
8r
8e
8e
=385
4e
8a
=386
8r
8a
8a
=387
4a
8ee
=388
8r
16aa
16ccc
16ff#
16aa
=389
16dd#
16ff#
16cc
16dd#
16a
16cc
=390
8r
16gg
16bb
16ee
16gg
=391
16b
16ee
16g
16b
16e
16g
=392
8r
16aa#
16eee
16gg
16aa#
=393
16ee
16gg
16cc
16ee
16a#
16cc
=394
16g
16a#
16e
16g
16c
16e
=395
16A#
16g
16f#
16g
16f#
16e
=396
8d#
8r
8b
=397
8cc
8r
8cc#
=398
8dd
8r
8dd#
=399
8ee
8r
8gg
=400
16ff#
16bb
16aa#
16bb
16b
16bb
=401
16cc
16bb
16aa#
16bb
16cc#
16bb
=402
16dd
16bb
16aa#
16bb
16dd#
16bb
=403
16ee
16bb
16aa#
16bb
16gg
16bb
=404
16ff#
16bb
16aa#
16bb
16aa#
16bb
=405
16ccc
16aa
16ff#
16ee
8dd#
=406
16ccc
16aa
16ff#
16ee
8dd#
=407
16gg
16ee
16cc
16b
8a#
=408
16gg
16ee
16cc
16b
8a#
=409
4.b
=410
4.ff#
=411
8ee
8r
8g
=412
8g#
8a
8a#
=413
8b
8cc
8a#
=414
8b
8r
8b
=415
8e
8r
8ddd#
=416
8eee
8r
8a
=417
8d
8r
8ccc#
=418
8ddd
8r
8g
=419
8c
8r
8bb
=420
8ccc
8r
8dd#
=421
8ee
8b
8cc
=422
8g#
8a
8e
=423
4.g
=424
8f#
8r
8ff#
=425
8gg
8dd#
8ee
=426
8b
8cc
8g
=427
4.b
=428
8a
8r
8r
=429
4.r
=430
4.r
=431
8r
8gg
8gg#
=432
8aa
8ee
8gg
=433
8ff#
8dd
8cc#
=434
8dd
8cc#
8dd
=435
4.a
=436
4.b-
=437
8a
8aa
8gg#
=438
8aa
8gg#
8aa
=439
4gg
8bb-
=440
4.cc#
=441
16dd
16ee-
16ee
16ff
16ff#
16gg
=442
16gg#
16aa
16bb-
16bb
16ccc
16ccc#
=443
8ddd
8r
8r
=444
4.r
=445
4b
8cc
=446
8dd
8r
8dd
=447
4gg
8ff#
=448
4ee
8dd
=449
4b
8cc
=450
8dd
8r
8dd
=451
4ee
8dd
=452
4cc
8b
=453
16d
16g
16f#
16g
16b
16g
=454
16e
16a
16g#
16a
16cc
16a
=455
16f#
16b
16a#
16b
16dd
16b
=456
16g
16cc
16b
16cc
16ee
16cc
=457
8dd
8r
8ccc
=458
8bb
8r
8dd
=459
8cc
8r
8ff#
=460
8gg
8r
8b
=461
16a
16g#
16b
16a
16cc
16b
=462
16dd
16cc
[4ee
=463
8ee]
[4cc
=464
8cc]
[4b
=465
8b]
[4a
=466
8a]
[4g
=467
8g]
[4f#
=468
8f#]
8g
8a
=469
4.b
=470
16e
16g
16cc
16g
16ee
16cc
=471
4.ff#
=472
16gg
16bb
16gg
16dd
16b
16g
=473
4.b
=474
16e
16g
16cc
16g
16ee
16cc
=475
4.ff#
=476
16gg
16aa
16bb
16gg
16ff#
16dd#
=477
4ee
8dd
=478
4cc
8b
=479
8b
8a
8b
=480
4cc
8b
=481
8b
8a
8b
=482
4cc
8b
=483
8a
8ddd
8ddd
=484
8ddd
8r
8r
=485
8ddd
8ccc#
8eee
=486
8ddd
8ccc#
8eee
=487
[4.ddd
=488
4.ddd_
=489
8ddd]
8r
16bb
16gg
=490
8ccc
8r
16aa
16ff#
=491
8gg
8r
16dd
16bb
=492
8aa
16aa
16ccc
16bb
16ddd
=493
8ccc
8bb
8ddd
=494
8ccc
8bb
8ddd
=495
[4.ccc
=496
4.ccc_
=497
8ccc]
8r
16aa
16ff#
=498
8gg
8r
16dd
16bb
=499
8aa
8r
16dd
16ccc
=500
8bb
16bb
16ddd
16ccc
16eee
=501
8ddd
8r
8r
=502
4.r
=503
8ee
8dd#
8ff#
=504
8ee
16e
16g
16f
16a
=505
8g
4r
=506
4.r
=507
8aa
8gg#
8bb
=508
8aa
16aa
16gg#
16bb
16aa
=509
16ccc
16aa
16ff#
16ee-
8dd
=510
16ccc
16aa
16ff#
16ee-
8dd
=511
16ccc
16aa
16ff#
16ee-
8dd
=512
16ccc
16aa
16ff#
16ee-
8dd
=513
8r
8r
8dd
=514
8r
8r
8gg
=515
4.dd
=516
4.aa
=517
8gg
8r
8ddd
=518
8ccc
8bb
8bb
=519
8bb
8r
8bb
=520
8fff
8eee
8eee
=521
4eee
8aa
=522
4ddd
8gg
=523
8ccc
8r
8bb
=524
4.aa
=525
8gg
8r
8r
=526
8r
8r
8ee
=527
8dd#
8r
8r
=528
8r
8r
8dd#
=529
8r
8dd
8cc#
=530
8r
8cc
8b
=531
8ee
8r
8r
=532
8cc
8r
8r
=533
16b
16dd
16gg
16bb
8ddd
=534
16cc
16ee
16gg
16ccc
8eee
=535
8r
8r
8ddd
=536
8r
8r
8ccc
=537
8gg
8gg
8gg
=538
8gg
8gg
8gg
=539
8ff#
8ff#
8ff#
=540
8ff#
8ff#
8ff#
=541
8gg
8r
8b
=542
8cc
8cc#
8dd
=543
8dd#
8ee
8cc#
=544
8dd
8r
8dd
=545
8g
8r
8ccc
=546
8bb
8r
8r
=547
*>C
8ff#:
8r
8r
=548
4.r
=549
8gg:
8r
8r
=550
4.r
==
*-
